svg/material-icons/view_compact_alt/materialiconssharp/20px.svg

<svg xmlns="http://www.w3.org/2000/svg" enable-background="new 0 0 20 20" height="20" viewBox="0 0 20 20" width="20"><g><rect fill="none" height="20" width="20"/></g><g><g><path d="M18,4H2v12h16V4z M9.5,13.5h-3v-3h3V13.5z M9.5,9.5h-3v-3h3V9.5z M13.5,13.5h-3v-3h3V13.5z M13.5,9.5h-3v-3h3V9.5z"/></g></g></svg>

<svg xmlns="http://www.w3.org/2000/svg" width="20" height="20" viewBox="0 0 20 20"><path d="M18 4H2v12h16V4zm-8.5 9.5h-3v-3h3v3zm0-4h-3v-3h3v3zm4 4h-3v-3h3v3zm0-4h-3v-3h3v3z"/></svg>
